X:1
T:Charles Vincent
T:Dunelm
%%score { ( 1 2 ) | ( 3 4 ) }
L:1/8
Q:1/4=184
M:3/2
K:Eb
V:1 treble 
V:2 treble 
V:3 bass 
V:4 bass 
V:1
"^Presto" G4 A4 c4 | B8 E4 | G8 F4 | E8 A4 | (A4 G4) c4 | (c4 B4) e4 | d4 B4 c4 | B12 | c4 F4 G4 | %9
 A8 c4 | B8 e4 | d8 c4 | (B4 G4) F4 | E8 F4 | G8 F4 | E12 | E12 | E12 |] %18
V:2
 E4 E4 D4 | E8 E4 | E8 D4 | E8 E4 | E8 D4 | E8 E4 | F8 F4 | F12 | F4 F4 =E4 | F8 C4 | F8 C4 | %11
 F8 F4 | B,8 =B,4 | C8 E4 | (E4 C4) D4 | E12 | C12 | B,12 |] %18
V:3
 B,4 C4 A,4 | G,8 =A,4 | (B,4 C4) A,4 | G,8 C4 | B,8 A,4 | G,8 B,4 | (B,4 D4) E4 | D12 | C4 C4 C4 | %9
 (C4 F,4) G,4 | A,8 =A,4 | B,8 (C2 D2) | E8 D4 | (C4 G,4) =A,4 | B,8 A,4 | G,12 | A,12 | G,12 |] %18
V:4
 E,4 E,4 E,4 | (E,4 D,4) C,4 | B,,8 B,,4 | E,8 E,4 | E,8 F,4 | G,8 G,4 | F,8 F,4 | B,12 | %8
 A,4 A,4 G,4 | F,8 E,4 | D,8 C,4 | B,,8 A,,4 | G,,8 G,,4 | C,8 C,4 | B,,8 B,,4 | E,12 | A,,12 | %17
 E,12 |] %18

